src/images/app-icons/light-theme/CloudDatabasesEnterpriseDB.svg

<svg xmlns="http://www.w3.org/2000/svg" viewBox="0 0 128 128"><defs><linearGradient id="CloudDatabasesEnterpriseDB_svg__b" y1="128" x2="128" gradientUnits="userSpaceOnUse"><stop offset=".1" stop-color="#fa4d56"/><stop offset=".897" stop-color="#0043ce"/></linearGradient><mask id="CloudDatabasesEnterpriseDB_svg__a" x="0" y="0" width="128" height="128" maskUnits="userSpaceOnUse"><path d="M16.9 96V31.781h42.32v10.766H29.039v15.547h26.68v10.765h-26.68v16.375h30.176V96zM71.359 96V47.977h11.778v8h.457a15.384 15.384 0 014.648-6.488q3.169-2.619 8.785-2.621 7.453 0 11.407 4.879t3.957 13.891V96h-11.778V66.836q0-5.151-1.84-7.727T92.7 56.531a12.433 12.433 0 00-3.543.508 9.951 9.951 0 00-3.035 1.469 7.78 7.78 0 00-2.161 2.392 6.577 6.577 0 00-.824 3.356V96z" fill="#fff"/></mask></defs><g data-name="Layer 2"><g mask="url(#CloudDatabasesEnterpriseDB_svg__a)" data-name="Light theme icons"><path fill="url(#CloudDatabasesEnterpriseDB_svg__b)" d="M0 0h128v128H0z"/></g></g></svg>

<svg xmlns="http://www.w3.org/2000/svg" xmlns:xlink="http://www.w3.org/1999/xlink" viewBox="0 0 128 128"><defs><style>.cls-1{fill:#fff;}.cls-2{mask:url(#mask);}.cls-3{fill:url(#linear-gradient);}</style><mask id="mask" x="0" y="0" width="128" height="128" maskUnits="userSpaceOnUse"><path class="cls-1" d="M16.9,96V31.781h42.32V42.547H29.039V58.094h26.68V68.859H29.039V85.234H59.215V96Z"/><path class="cls-1" d="M71.359,96V47.977H83.137v8h.457a15.384,15.384,0,0,1,4.648-6.488q3.169-2.619,8.785-2.621,7.453,0,11.407,4.879t3.957,13.891V96H100.613V66.836q0-5.151-1.84-7.727T92.7,56.531a12.433,12.433,0,0,0-3.543.508,9.951,9.951,0,0,0-3.035,1.469A7.78,7.78,0,0,0,83.961,60.9a6.577,6.577,0,0,0-.824,3.356V96Z"/></mask><linearGradient id="linear-gradient" y1="128" x2="128" gradientUnits="userSpaceOnUse"><stop offset="0.1" stop-color="#fa4d56"/><stop offset="0.897" stop-color="#0043ce"/></linearGradient></defs><g id="Layer_2" data-name="Layer 2"><g id="Light_theme_icons" data-name="Light theme icons"><g class="cls-2"><rect id="Color" class="cls-3" width="128" height="128"/></g></g></g></svg>
